images/hero-phone.svg

<svg width="419" height="660" viewBox="0 0 419 660" fill="none" xmlns="http://www.w3.org/2000/svg">
<g filter="url(#filter0_d_0_4911)">
<path fill-rule="evenodd" clip-rule="evenodd" d="M88.776 55.5695H280.009C298.35 55.5695 313.217 69.8048 313.217 87.365V522.635C313.217 540.195 298.35 554.431 280.009 554.431H88.776C70.4357 554.431 55.5679 540.195 55.5679 522.635V87.365C55.5679 69.8048 70.4357 55.5695 88.776 55.5695Z" fill="#213648"/>
</g>
<path opacity="0.595562" fill-rule="evenodd" clip-rule="evenodd" d="M280.749 55H87.9226C78.92 55.549 70.6174 59.6569 63.0146 67.3239C67.9041 63.0559 76.6249 57.3446 88.1546 57.3446C88.1546 57.3446 272.83 57.3446 280.517 57.3446C292.046 57.3446 300.767 63.0559 305.656 67.3239C298.054 59.6569 289.751 55.549 280.749 55Z" fill="url(#paint0_linear_0_4911)" fill-opacity="0.65"/>
<path opacity="0.75" fill-rule="evenodd" clip-rule="evenodd" d="M307.999 517.671V89.9818C307.999 78.5065 303.782 74.2644 301.266 71.5405C298.75 68.8166 298.643 67.4272 302.258 69.4839C305.873 71.5405 313.103 77.5306 313.103 89.9818V517.671C313.103 530.122 305.873 536.112 302.258 538.169C298.643 540.225 298.75 538.836 301.266 536.112C303.782 533.388 307.999 529.146 307.999 517.671Z" fill="url(#paint1_linear_0_4911)"/>
<path opacity="0.75" fill-rule="evenodd" clip-rule="evenodd" d="M60.672 517.671V89.9818C60.672 78.5065 64.8894 74.2644 67.4053 71.5405C69.9212 68.8166 70.0283 67.4272 66.4134 69.4839C62.7984 71.5405 55.568 77.5306 55.568 89.9818V517.671C55.568 530.122 62.7984 536.112 66.4134 538.169C70.0283 540.225 69.9212 538.836 67.4053 536.112C64.8894 533.388 60.672 529.146 60.672 517.671Z" fill="url(#paint2_linear_0_4911)"/>
<path fill-rule="evenodd" clip-rule="evenodd" d="M53 158.556C53 157.452 53.8954 156.556 55 156.556H55.9645C57.0691 156.556 57.9645 157.452 57.9645 158.556V218.907C57.9645 220.012 57.0691 220.907 55.9645 220.907H55C53.8954 220.907 53 220.012 53 218.907V158.556Z" fill="#2E423C"/>
<path fill-rule="evenodd" clip-rule="evenodd" d="M310.535 211.043C310.535 209.939 311.431 209.043 312.535 209.043H313.5C314.605 209.043 315.5 209.939 315.5 211.043V253.993C315.5 255.098 314.605 255.993 313.5 255.993H312.535C311.431 255.993 310.535 255.098 310.535 253.993V211.043Z" fill="#2E423C"/>
<g clip-path="url(#clip0_0_4911)">
<path fill-rule="evenodd" clip-rule="evenodd" d="M161.676 67.4445L87.2698 67.4445C76.1653 67.4445 68.0742 75.0078 68.0742 84.8859V507.276C68.0742 520.155 80.5765 531.567 94.7134 531.567H274.046C287.664 531.567 300.686 520.067 300.686 507.276V86.0276C300.686 74.188 291.896 67.5149 281.49 67.4445L205.904 67.4445C205.618 67.4914 200.425 69.6262 198.231 75.0078C196.036 80.3893 191.621 84.6793 186.787 84.6793H181.172C178.874 84.6793 172.824 82.4496 169.76 75.0078C166.697 67.5659 161.963 67.4914 161.676 67.4445Z" fill="white"/>
<mask id="mask0_0_4911" style="mask-type:alpha" maskUnits="userSpaceOnUse" x="68" y="67" width="233" height="465">
<path fill-rule="evenodd" clip-rule="evenodd" d="M161.676 67.4445L87.2698 67.4445C76.1653 67.4445 68.0742 75.0078 68.0742 84.8859V507.276C68.0742 520.155 80.5765 531.567 94.7134 531.567H274.046C287.664 531.567 300.686 520.067 300.686 507.276V86.0276C300.686 74.188 291.896 67.5149 281.49 67.4445L205.904 67.4445C205.618 67.4914 200.425 69.6262 198.231 75.0078C196.036 80.3893 191.621 84.6793 186.787 84.6793H181.172C178.874 84.6793 172.824 82.4496 169.76 75.0078C166.697 67.5659 161.963 67.4914 161.676 67.4445Z" fill="white"/>
</mask>
<g mask="url(#mask0_0_4911)">
<rect x="68" y="67.4445" width="233" height="465" fill="url(#paint3_linear_0_4911)"/>
<path d="M147.504 196V178.672H143.376V176.032C144.699 176.032 145.765 175.909 146.576 175.664C147.397 175.408 148.011 175.045 148.416 174.576C148.821 174.096 149.061 173.525 149.136 172.864H152.24V196H147.504ZM157.496 196V193.696V192.512C157.496 191.339 157.714 190.325 158.152 189.472C158.589 188.608 159.165 187.861 159.88 187.232C160.605 186.592 161.394 186.032 162.248 185.552C163.112 185.072 163.976 184.619 164.84 184.192C165.704 183.765 166.493 183.339 167.208 182.912C167.933 182.475 168.514 181.989 168.952 181.456C169.389 180.923 169.608 180.293 169.608 179.568C169.608 178.64 169.282 177.883 168.632 177.296C167.992 176.709 167.112 176.416 165.992 176.416C164.829 176.416 163.842 176.752 163.032 177.424C162.221 178.096 161.72 179.109 161.528 180.464H157.064C157.085 178.992 157.426 177.659 158.088 176.464C158.76 175.259 159.762 174.304 161.096 173.6C162.429 172.896 164.104 172.544 166.12 172.544C167.848 172.544 169.336 172.837 170.584 173.424C171.842 174.011 172.813 174.827 173.496 175.872C174.178 176.917 174.52 178.139 174.52 179.536C174.52 180.699 174.306 181.701 173.88 182.544C173.453 183.387 172.888 184.107 172.184 184.704C171.48 185.301 170.706 185.824 169.864 186.272C169.021 186.72 168.178 187.136 167.336 187.52C166.504 187.904 165.736 188.299 165.032 188.704C164.328 189.099 163.762 189.547 163.336 190.048C162.909 190.549 162.696 191.152 162.696 191.856V192.064H174.488V196H157.496ZM182.704 179.856V184.864H177.584V179.856H182.704ZM182.704 190.912V195.904H177.584V190.912H182.704ZM196.451 172.864H201.043V186.96H204.611V190.88H201.043V196H196.547L196.563 190.88H185.907V187.04L196.451 172.864ZM190.227 186.96H196.563V178.48L190.227 186.96ZM215.435 196.352C213.995 196.352 212.651 196.075 211.403 195.52C210.155 194.965 209.137 194.187 208.347 193.184C207.558 192.171 207.115 190.987 207.019 189.632H211.467C211.659 190.528 212.086 191.259 212.747 191.824C213.409 192.379 214.241 192.656 215.243 192.656C216.353 192.656 217.323 192.395 218.155 191.872C218.998 191.349 219.627 190.517 220.043 189.376C220.47 188.235 220.619 186.741 220.491 184.896C220.193 185.461 219.777 185.957 219.243 186.384C218.721 186.8 218.107 187.125 217.403 187.36C216.699 187.584 215.915 187.696 215.051 187.696C213.483 187.696 212.091 187.403 210.875 186.816C209.67 186.219 208.721 185.376 208.027 184.288C207.345 183.189 207.003 181.888 207.003 180.384C207.003 178.869 207.366 177.52 208.091 176.336C208.817 175.152 209.83 174.224 211.131 173.552C212.433 172.88 213.958 172.544 215.707 172.544C217.67 172.544 219.361 173.013 220.779 173.952C222.209 174.88 223.302 176.203 224.059 177.92C224.827 179.627 225.211 181.637 225.211 183.952C225.211 186.715 224.817 189.019 224.027 190.864C223.249 192.699 222.129 194.075 220.667 194.992C219.206 195.899 217.462 196.352 215.435 196.352ZM215.851 183.984C216.502 183.984 217.131 183.84 217.739 183.552C218.358 183.253 218.865 182.88 219.259 182.432C219.654 181.984 219.851 181.52 219.851 181.04C219.862 180.005 219.697 179.12 219.355 178.384C219.025 177.637 218.555 177.067 217.947 176.672C217.35 176.277 216.651 176.08 215.851 176.08C215.115 176.08 214.459 176.251 213.883 176.592C213.307 176.933 212.854 177.413 212.523 178.032C212.193 178.651 212.027 179.365 212.027 180.176C212.027 181.381 212.379 182.32 213.083 182.992C213.787 183.653 214.71 183.984 215.851 183.984Z" fill="white"/>
</g>
</g>
<defs>
<filter id="filter0_d_0_4911" x="0.567871" y="0.569458" width="417.649" height="658.861" filterUnits="userSpaceOnUse" color-interpolation-filters="sRGB">
<feFlood flood-opacity="0" result="BackgroundImageFix"/>
<feColorMatrix in="SourceAlpha" type="matrix" values="0 0 0 0 0 0 0 0 0 0 0 0 0 0 0 0 0 0 127 0" result="hardAlpha"/>
<feOffset dx="25" dy="25"/>
<feGaussianBlur stdDeviation="40"/>
<feColorMatrix type="matrix" values="0 0 0 0 0.212302 0 0 0 0 0.32521 0 0 0 0 0.419299 0 0 0 0.300727 0"/>
<feBlend mode="normal" in2="BackgroundImageFix" result="effect1_dropShadow_0_4911"/>
<feBlend mode="normal" in="SourceGraphic" in2="effect1_dropShadow_0_4911" result="shape"/>
</filter>
<linearGradient id="paint0_linear_0_4911" x1="63.0146" y1="55" x2="63.0146" y2="67.3239" gradientUnits="userSpaceOnUse">
<stop stop-color="#454545"/>
<stop offset="0.226279" stop-color="#999999"/>
<stop offset="1" stop-color="white"/>
</linearGradient>
<linearGradient id="paint1_linear_0_4911" x1="313.103" y1="140.747" x2="303.642" y2="140.747" gradientUnits="userSpaceOnUse">
<stop stop-color="white" stop-opacity="0.01"/>
<stop offset="0.222178" stop-color="#BABABA"/>
<stop offset="0.54678" stop-color="white" stop-opacity="0.01"/>
<stop offset="1" stop-color="white" stop-opacity="0.01"/>
</linearGradient>
<linearGradient id="paint2_linear_0_4911" x1="55.568" y1="140.487" x2="65.044" y2="140.487" gradientUnits="userSpaceOnUse">
<stop stop-color="white" stop-opacity="0.01"/>
<stop offset="0.222178" stop-color="#BABABA"/>
<stop offset="0.54678" stop-color="white" stop-opacity="0.01"/>
<stop offset="1" stop-color="white" stop-opacity="0.01"/>
</linearGradient>
<linearGradient id="paint3_linear_0_4911" x1="68.907" y1="67.4445" x2="68.907" y2="528.824" gradientUnits="userSpaceOnUse">
<stop stop-color="#9CB6CD"/>
<stop offset="0.420564" stop-color="#9AB3CA"/>
<stop offset="0.716592" stop-color="#557496"/>
<stop offset="1" stop-color="#475178"/>
</linearGradient>
<clipPath id="clip0_0_4911">
<rect width="233" height="465" fill="white" transform="translate(68.0742 67.4445)"/>
</clipPath>
</defs>
</svg>

<svg width="419" height="660" fill="none" xmlns="http://www.w3.org/2000/svg"><g filter="url(#a)"><path fill-rule="evenodd" clip-rule="evenodd" d="M88.776 55.57h191.233c18.341 0 33.208 14.235 33.208 31.795v435.27c0 17.56-14.867 31.796-33.208 31.796H88.776c-18.34 0-33.208-14.236-33.208-31.796V87.365c0-17.56 14.868-31.795 33.208-31.795Z" fill="#213648"/></g><path opacity=".596" fill-rule="evenodd" clip-rule="evenodd" d="M280.749 55H87.923c-9.003.549-17.306 4.657-24.908 12.324 4.89-4.268 13.61-9.98 25.14-9.98h192.362c11.529 0 20.25 5.712 25.139 9.98-7.602-7.667-15.905-11.775-24.907-12.324Z" fill="url(#b)" fill-opacity=".65"/><path opacity=".75" fill-rule="evenodd" clip-rule="evenodd" d="M307.999 517.671V89.981c0-11.474-4.217-15.717-6.733-18.44-2.516-2.724-2.623-4.114.992-2.057 3.615 2.056 10.845 8.047 10.845 20.498V517.67c0 12.451-7.23 18.441-10.845 20.498-3.615 2.056-3.508.667-.992-2.057s6.733-6.966 6.733-18.441Z" fill="url(#c)"/><path opacity=".75" fill-rule="evenodd" clip-rule="evenodd" d="M60.672 517.671V89.981c0-11.474 4.217-15.717 6.733-18.44 2.516-2.724 2.623-4.114-.992-2.057-3.615 2.056-10.845 8.047-10.845 20.498V517.67c0 12.451 7.23 18.441 10.845 20.498 3.615 2.056 3.508.667.992-2.057s-6.733-6.966-6.733-18.441Z" fill="url(#d)"/><path fill-rule="evenodd" clip-rule="evenodd" d="M53 158.556a2 2 0 0 1 2-2h.965a2 2 0 0 1 2 2v60.351a2 2 0 0 1-2 2H55a2 2 0 0 1-2-2v-60.351ZM310.535 211.043a2 2 0 0 1 2-2h.965a2 2 0 0 1 2 2v42.95a2 2 0 0 1-2 2h-.965a2 2 0 0 1-2-2v-42.95Z" fill="#2E423C"/><g clip-path="url(#e)"><path fill-rule="evenodd" clip-rule="evenodd" d="M161.676 67.445H87.27c-11.105 0-19.196 7.563-19.196 17.44v422.391c0 12.879 12.502 24.291 26.64 24.291h179.332c13.618 0 26.64-11.5 26.64-24.291V86.028c0-11.84-8.79-18.513-19.196-18.584h-75.586c-.286.047-5.479 2.182-7.673 7.564-2.195 5.381-6.61 9.671-11.444 9.671h-5.615c-2.298 0-8.348-2.23-11.412-9.671-3.063-7.442-7.797-7.517-8.084-7.563Z" fill="#fff"/><mask id="f" style="mask-type:alpha" maskUnits="userSpaceOnUse" x="68" y="67" width="233" height="465"><path fill-rule="evenodd" clip-rule="evenodd" d="M161.676 67.445H87.27c-11.105 0-19.196 7.563-19.196 17.44v422.391c0 12.879 12.502 24.291 26.64 24.291h179.332c13.618 0 26.64-11.5 26.64-24.291V86.028c0-11.84-8.79-18.513-19.196-18.584h-75.586c-.286.047-5.479 2.182-7.673 7.564-2.195 5.381-6.61 9.671-11.444 9.671h-5.615c-2.298 0-8.348-2.23-11.412-9.671-3.063-7.442-7.797-7.517-8.084-7.563Z" fill="#fff"/></mask><g mask="url(#f)"><path fill="url(#g)" d="M68 67.445h233v465H68z"/><path d="M147.504 196v-17.328h-4.128v-2.64c1.323 0 2.389-.123 3.2-.368.821-.256 1.435-.619 1.84-1.088a3.14 3.14 0 0 0 .72-1.712h3.104V196h-4.736Zm9.992 0V192.512c0-1.173.218-2.187.656-3.04a7.404 7.404 0 0 1 1.728-2.24c.725-.64 1.514-1.2 2.368-1.68a60.86 60.86 0 0 1 2.592-1.36 34.057 34.057 0 0 0 2.368-1.28c.725-.437 1.306-.923 1.744-1.456.437-.533.656-1.163.656-1.888 0-.928-.326-1.685-.976-2.272-.64-.587-1.52-.88-2.64-.88-1.163 0-2.15.336-2.96 1.008-.811.672-1.312 1.685-1.504 3.04h-4.464c.021-1.472.362-2.805 1.024-4 .672-1.205 1.674-2.16 3.008-2.864 1.333-.704 3.008-1.056 5.024-1.056 1.728 0 3.216.293 4.464.88 1.258.587 2.229 1.403 2.912 2.448.682 1.045 1.024 2.267 1.024 3.664 0 1.163-.214 2.165-.64 3.008a6.868 6.868 0 0 1-1.696 2.16 13.058 13.058 0 0 1-2.32 1.568c-.843.448-1.686.864-2.528 1.248-.832.384-1.6.779-2.304 1.184-.704.395-1.27.843-1.696 1.344-.427.501-.64 1.104-.64 1.808v.208h11.792V196h-16.992Zm25.208-16.144v5.008h-5.12v-5.008h5.12Zm0 11.056v4.992h-5.12v-4.992h5.12Zm13.747-18.048h4.592v14.096h3.568v3.92h-3.568V196h-4.496l.016-5.12h-10.656v-3.84l10.544-14.176Zm-6.224 14.096h6.336v-8.48l-6.336 8.48Zm25.208 9.392c-1.44 0-2.784-.277-4.032-.832-1.248-.555-2.266-1.333-3.056-2.336-.789-1.013-1.232-2.197-1.328-3.552h4.448c.192.896.619 1.627 1.28 2.192.662.555 1.494.832 2.496.832 1.11 0 2.08-.261 2.912-.784.843-.523 1.472-1.355 1.888-2.496.427-1.141.576-2.635.448-4.48a4.714 4.714 0 0 1-1.248 1.488 5.94 5.94 0 0 1-1.84.976c-.704.224-1.488.336-2.352.336-1.568 0-2.96-.293-4.176-.88-1.205-.597-2.154-1.44-2.848-2.528-.682-1.099-1.024-2.4-1.024-3.904 0-1.515.363-2.864 1.088-4.048.726-1.184 1.739-2.112 3.04-2.784 1.302-.672 2.827-1.008 4.576-1.008 1.963 0 3.654.469 5.072 1.408 1.43.928 2.523 2.251 3.28 3.968.768 1.707 1.152 3.717 1.152 6.032 0 2.763-.394 5.067-1.184 6.912-.778 1.835-1.898 3.211-3.36 4.128-1.461.907-3.205 1.36-5.232 1.36Zm.416-12.368a4.36 4.36 0 0 0 1.888-.432c.619-.299 1.126-.672 1.52-1.12.395-.448.592-.912.592-1.392.011-1.035-.154-1.92-.496-2.656-.33-.747-.8-1.317-1.408-1.712-.597-.395-1.296-.592-2.096-.592-.736 0-1.392.171-1.968.512a3.613 3.613 0 0 0-1.36 1.44c-.33.619-.496 1.333-.496 2.144 0 1.205.352 2.144 1.056 2.816.704.661 1.627.992 2.768.992Z" fill="#fff"/></g></g><defs><linearGradient id="b" x1="63.015" y1="55" x2="63.015" y2="67.324" gradientUnits="userSpaceOnUse"><stop stop-color="#454545"/><stop offset=".226" stop-color="#999"/><stop offset="1" stop-color="#fff"/></linearGradient><linearGradient id="c" x1="313.103" y1="140.747" x2="303.642" y2="140.747" gradientUnits="userSpaceOnUse"><stop stop-color="#fff" stop-opacity=".01"/><stop offset=".222" stop-color="#BABABA"/><stop offset=".547" stop-color="#fff" stop-opacity=".01"/><stop offset="1" stop-color="#fff" stop-opacity=".01"/></linearGradient><linearGradient id="d" x1="55.568" y1="140.487" x2="65.044" y2="140.487" gradientUnits="userSpaceOnUse"><stop stop-color="#fff" stop-opacity=".01"/><stop offset=".222" stop-color="#BABABA"/><stop offset=".547" stop-color="#fff" stop-opacity=".01"/><stop offset="1" stop-color="#fff" stop-opacity=".01"/></linearGradient><linearGradient id="g" x1="68.907" y1="67.445" x2="68.907" y2="528.824" gradientUnits="userSpaceOnUse"><stop stop-color="#9CB6CD"/><stop offset=".421" stop-color="#9AB3CA"/><stop offset=".717" stop-color="#557496"/><stop offset="1" stop-color="#475178"/></linearGradient><clipPath id="e"><path fill="#fff" transform="translate(68.074 67.445)" d="M0 0h233v465H0z"/></clipPath><filter id="a" x=".568" y=".569" width="417.649" height="658.861" filterUnits="userSpaceOnUse" color-interpolation-filters="sRGB"><feFlood flood-opacity="0" result="BackgroundImageFix"/><feColorMatrix in="SourceAlpha" values="0 0 0 0 0 0 0 0 0 0 0 0 0 0 0 0 0 0 127 0" result="hardAlpha"/><feOffset dx="25" dy="25"/><feGaussianBlur stdDeviation="40"/><feColorMatrix values="0 0 0 0 0.212302 0 0 0 0 0.32521 0 0 0 0 0.419299 0 0 0 0.300727 0"/><feBlend in2="BackgroundImageFix" result="effect1_dropShadow_0_4911"/><feBlend in="SourceGraphic" in2="effect1_dropShadow_0_4911" result="shape"/></filter></defs></svg>
